X:71
T:Mary Brunner
M:C|
C: Paul Gitlitz 2006
R:Reel
B:Anna's Smile
N:Mary is a great fiddler in Vancouver BC.
K:A
"E7"EFGA "Bm7"BcdB|"A6"cABA "F#m7"cABA|"E7"EFGA "Bm7"BcdB|"A6"cABc A4|!
"E7"EFGA "Bm7"BcdB|"A6"cABc "D"defg|"A6"ae(3eee "Bm7"efed |"E7"cABc "A6"A4:|!
|:"D"fd(3ddd fdbd|"Bm7"adgd fedf|"A6"ec(3ccc "Bm7"ecef|"C#m7"edcd "F#m7"eAce|!
"D"fd(3ddd fdbd|"Bm7"adgd fedf|"F#m7/C#"efaf "A6"ecAc|1"E7"BAGB "A6"ABce:|2"E7"BAGB "A6"A4|]
